img/icones/bloqueio-UVB.svg

<svg width="32" height="32" viewBox="0 0 32 32" fill="none" xmlns="http://www.w3.org/2000/svg">
<g clip-path="url(#clip0_29_87)">
<path d="M21.5 23.7866C19.745 23.7866 18.64 24.1894 17.665 24.554C16.82 24.8705 16.131 25.1295 15 25.1295C13.83 25.1295 13.18 24.8897 12.335 24.554C11.36 24.1894 10.294 23.7866 8.5 23.7866C6.706 23.7866 5.64 24.1894 4.665 24.554C4.106 24.765 3.612 24.9472 3.014 25.0528C2.429 25.1487 2 25.494 2 25.9257V26.0216C2 26.5971 2.728 27.0096 3.482 26.8945C4.444 26.7506 5.172 26.482 5.835 26.2326C6.68 25.9161 7.356 25.6571 8.5 25.6571C9.644 25.6571 10.32 25.8969 11.165 26.2326C12.14 26.5971 13.206 27 15 27C16.794 27 17.86 26.5971 18.835 26.2326C19.68 25.9161 20.369 25.6571 21.5 25.6571C22.67 25.6571 23.32 25.8969 24.165 26.2326C24.841 26.482 25.569 26.7602 26.544 26.9041C26.7196 26.9294 26.9006 26.9259 27.0742 26.8939C27.2479 26.8619 27.4098 26.8022 27.5487 26.7189C27.6876 26.6356 27.8 26.5309 27.878 26.4121C27.9559 26.2932 27.9976 26.1632 28 26.0312V25.9448C28 25.5036 27.558 25.1583 26.973 25.0623C26.375 24.9664 25.894 24.7842 25.335 24.5635C24.36 24.1894 23.255 23.7866 21.5 23.7866ZM21.5 19.518C19.745 19.518 18.64 19.9305 17.665 20.2854C16.82 20.5923 16.131 20.8609 15 20.8609C13.83 20.8609 13.18 20.6211 12.335 20.2854C11.36 19.9209 10.294 19.518 8.5 19.518C6.706 19.518 5.64 19.9305 4.665 20.2854C4.106 20.4868 3.612 20.6787 3.001 20.7842C2.429 20.8801 2 21.2254 2 21.6571V21.753C2.00007 21.8856 2.0402 22.0165 2.11746 22.1362C2.19471 22.2559 2.30716 22.3614 2.44661 22.445C2.58607 22.5286 2.74903 22.5882 2.92363 22.6195C3.09824 22.6508 3.28011 22.653 3.456 22.6259C4.431 22.482 5.159 22.2038 5.835 21.964C6.68 21.6283 7.33 21.3885 8.5 21.3885C9.67 21.3885 10.32 21.6283 11.165 21.964C12.14 22.3285 13.206 22.7314 15 22.7314C16.794 22.7314 17.86 22.3189 18.835 21.964C19.68 21.6283 20.33 21.3885 21.5 21.3885C22.67 21.3885 23.32 21.6283 24.165 21.964C24.841 22.2134 25.569 22.4916 26.544 22.6355C26.7207 22.6609 26.9028 22.6572 27.0774 22.6247C27.2519 22.5922 27.4145 22.5316 27.5537 22.4473C27.6928 22.3629 27.8049 22.257 27.8821 22.137C27.9592 22.0169 27.9995 21.8858 28 21.753V21.6667C28 21.2254 27.558 20.8801 26.973 20.7842C26.375 20.6882 25.894 20.506 25.335 20.2854C24.36 19.9209 23.255 19.518 21.5 19.518ZM25.335 11.7674C24.36 11.4029 23.281 11 21.5 11C19.719 11 18.64 11.4029 17.665 11.7674C16.82 12.0743 16.131 12.3429 15 12.3429C13.83 12.3429 13.18 12.1031 12.335 11.7674C11.36 11.4125 10.294 11 8.5 11C6.706 11 5.64 11.4029 4.665 11.7674C4.106 11.9784 3.612 12.1607 3.014 12.2662C2.429 12.3621 2 12.7074 2 13.1391V13.2062C2 13.7818 2.702 14.2038 3.456 14.0887C4.431 13.9448 5.159 13.6667 5.835 13.4269C6.68 13.1103 7.356 12.8513 8.5 12.8513C9.644 12.8513 10.32 13.0911 11.165 13.4269C12.14 13.7914 13.206 14.1942 15 14.1942C16.794 14.1942 17.86 13.7818 18.835 13.4269C19.68 13.1199 20.369 12.8513 21.5 12.8513C22.67 12.8513 23.32 13.0911 24.165 13.4269C24.841 13.6763 25.569 13.9544 26.544 14.0983C26.7207 14.1238 26.9028 14.1201 27.0774 14.0875C27.2519 14.055 27.4145 13.9944 27.5537 13.9101C27.6928 13.8258 27.8049 13.7198 27.8821 13.5998C27.9592 13.4798 27.9995 13.3487 28 13.2158V13.1295C28 12.6882 27.558 12.3429 26.973 12.247C26.375 12.1511 25.894 11.9784 25.335 11.7674ZM21.5 15.2494C19.745 15.2494 18.64 15.6619 17.665 16.0168C16.82 16.3525 16.17 16.5923 15 16.5923C13.83 16.5923 13.18 16.3525 12.335 16.0168C11.36 15.6523 10.294 15.2494 8.5 15.2494C6.706 15.2494 5.64 15.6619 4.665 16.0168C4.106 16.2374 3.625 16.4197 3.027 16.5156C2.442 16.6115 2 16.9568 2 17.3981V17.4844C2.00007 17.617 2.0402 17.7479 2.11746 17.8676C2.19471 17.9873 2.30716 18.0928 2.44661 18.1764C2.58607 18.26 2.74903 18.3196 2.92363 18.3509C3.09824 18.3822 3.28011 18.3844 3.456 18.3573C4.431 18.2134 5.159 17.9353 5.835 17.6954C6.68 17.3885 7.369 17.1199 8.5 17.1199C9.631 17.1199 10.32 17.3597 11.165 17.6954C12.14 18.06 13.206 18.4628 15 18.4628C16.794 18.4628 17.86 18.0504 18.835 17.6954C19.68 17.3885 20.369 17.1199 21.5 17.1199C22.67 17.1199 23.32 17.3597 24.165 17.6954C24.841 17.9448 25.569 18.223 26.544 18.3669C26.7196 18.3922 26.9006 18.3887 27.0742 18.3567C27.2479 18.3247 27.4098 18.265 27.5487 18.1817C27.6876 18.0985 27.8 17.9937 27.878 17.8749C27.9559 17.7561 27.9976 17.626 28 17.494V17.4077C28 16.9664 27.558 16.6211 26.973 16.5252C26.375 16.4293 25.894 16.247 25.335 16.0264C24.36 15.6523 23.255 15.2494 21.5 15.2494Z" fill="url(#paint0_linear_29_87)"/>
<path d="M6.7813 1.48288L11.0736 3.86319L12.4505 1.38031L16.8235 8.67509L12.5313 6.29479L11.1544 8.77767L6.7813 1.48288Z" fill="url(#paint1_linear_29_87)"/>
</g>
<defs>
<linearGradient id="paint0_linear_29_87" x1="15" y1="11" x2="15" y2="27" gradientUnits="userSpaceOnUse">
<stop stop-color="#FFBF00"/>
<stop offset="1" stop-color="#F2A50C"/>
</linearGradient>
<linearGradient id="paint1_linear_29_87" x1="13.5235" y1="1.97538" x2="10.0813" y2="8.18259" gradientUnits="userSpaceOnUse">
<stop stop-color="#FFBF00"/>
<stop offset="1" stop-color="#F2A50C"/>
</linearGradient>
<clipPath id="clip0_29_87">
<rect width="32" height="32" fill="white"/>
</clipPath>
</defs>
</svg>

<svg xmlns="http://www.w3.org/2000/svg" width="32" height="32" fill="none"><g clip-path="url(#a)"><path fill="url(#b)" d="M21.5 23.787c-1.755 0-2.86.402-3.835.767-.845.317-1.534.576-2.665.576-1.17 0-1.82-.24-2.665-.576-.975-.365-2.041-.767-3.835-.767s-2.86.402-3.835.767c-.559.211-1.053.393-1.651.499-.585.096-1.014.441-1.014.873v.096c0 .575.728.988 1.482.873.962-.144 1.69-.413 2.353-.662.845-.317 1.521-.576 2.665-.576 1.144 0 1.82.24 2.665.576.975.364 2.041.767 3.835.767s2.86-.403 3.835-.767c.845-.317 1.534-.576 2.665-.576 1.17 0 1.82.24 2.665.576.676.249 1.404.527 2.379.671.176.025.357.022.53-.01.174-.032.336-.092.475-.175.139-.083.251-.188.329-.307a.717.717 0 0 0 .122-.38v-.087c0-.441-.442-.787-1.027-.883-.598-.096-1.079-.278-1.638-.498-.975-.375-2.08-.777-3.835-.777Zm0-4.269c-1.755 0-2.86.412-3.835.767-.845.307-1.534.576-2.665.576-1.17 0-1.82-.24-2.665-.576-.975-.364-2.041-.767-3.835-.767s-2.86.412-3.835.767c-.559.202-1.053.394-1.664.5-.572.095-1.001.44-1.001.872v.096c0 .133.04.264.117.383.078.12.19.225.33.309.14.084.302.143.477.174.174.032.356.034.532.007.975-.144 1.703-.422 2.379-.662.845-.336 1.495-.575 2.665-.575s1.82.24 2.665.575c.975.364 2.041.767 3.835.767s2.86-.412 3.835-.767c.845-.336 1.495-.575 2.665-.575s1.82.24 2.665.575c.676.25 1.404.528 2.379.672.177.025.359.021.533-.011.175-.033.337-.093.477-.178.139-.084.25-.19.328-.31a.713.713 0 0 0 .118-.384v-.086c0-.442-.442-.787-1.027-.883-.598-.096-1.079-.278-1.638-.499-.975-.364-2.08-.767-3.835-.767Zm3.835-7.75C24.36 11.402 23.281 11 21.5 11c-1.781 0-2.86.403-3.835.767-.845.307-1.534.576-2.665.576-1.17 0-1.82-.24-2.665-.576C11.36 11.413 10.294 11 8.5 11s-2.86.403-3.835.767c-.559.211-1.053.394-1.651.5-.585.095-1.014.44-1.014.872v.067c0 .576.702.998 1.456.883.975-.144 1.703-.422 2.379-.662.845-.317 1.521-.576 2.665-.576 1.144 0 1.82.24 2.665.576.975.364 2.041.767 3.835.767s2.86-.412 3.835-.767c.845-.307 1.534-.576 2.665-.576 1.17 0 1.82.24 2.665.576.676.25 1.404.527 2.379.671.177.026.359.022.533-.01.175-.033.337-.094.477-.178.139-.084.25-.19.328-.31a.713.713 0 0 0 .118-.384v-.086c0-.442-.442-.787-1.027-.883-.598-.096-1.079-.269-1.638-.48ZM21.5 15.248c-1.755 0-2.86.413-3.835.768-.845.335-1.495.575-2.665.575s-1.82-.24-2.665-.575c-.975-.365-2.041-.768-3.835-.768s-2.86.413-3.835.768c-.559.22-1.04.403-1.638.499-.585.096-1.027.44-1.027.882v.086c0 .133.04.264.117.384.078.12.19.225.33.308.14.084.302.144.477.175.174.031.356.033.532.006.975-.144 1.703-.422 2.379-.662.845-.306 1.534-.575 2.665-.575s1.82.24 2.665.575c.975.365 2.041.768 3.835.768s2.86-.413 3.835-.768c.845-.306 1.534-.575 2.665-.575 1.17 0 1.82.24 2.665.575.676.25 1.404.528 2.379.672.176.025.357.022.53-.01.174-.032.336-.092.475-.175.139-.083.251-.188.329-.307a.716.716 0 0 0 .122-.381v-.086c0-.442-.442-.787-1.027-.883-.598-.096-1.079-.278-1.638-.499-.975-.374-2.08-.777-3.835-.777Z"/><path fill="url(#c)" d="m6.781 1.483 4.293 2.38L12.45 1.38l4.372 7.295-4.292-2.38-1.377 2.483-4.373-7.295Z"/></g><defs><linearGradient id="b" x1="15" x2="15" y1="11" y2="27" gradientUnits="userSpaceOnUse"><stop stop-color="#FFBF00"/><stop offset="1" stop-color="#F2A50C"/></linearGradient><linearGradient id="c" x1="13.524" x2="10.081" y1="1.975" y2="8.183" gradientUnits="userSpaceOnUse"><stop stop-color="#FFBF00"/><stop offset="1" stop-color="#F2A50C"/></linearGradient><clipPath id="a"><path fill="#fff" d="M0 0h32v32H0z"/></clipPath></defs></svg>
